X:1
T: John Brown
C:
R:Strathspey
Q: 128
K:A
M:4/4
L:1/16
|:e2|ce3 e4 a3f df3|ce3 e4 B3c ((3d2c2B2) |ce3 e4 a3f df3|ec3 B3c A4 A4|
ce3 e4 a3f df3|ce3 e4 B3c ((3d2c2B2) |ce3 e4 a3f df3|ec3 B3c A4 A3e|
((3c2B2A2) e3A f3A a3A|((3c2B2A2) e3c BB3 B3e|((3c2B2A2) e3A f3A a3f|ec3 B3c A4 A3e|
((3c2B2A2) e3A f3A a3A|((3c2B2A2) e3c BB3 B3e|((3c2B2A2) e3A f3A a3f|ec3 B3c A4-A2:|
